X:601
T:Reel 601
M:4/4
K:Cmaj
L:1/8
Accd eccd|ecce dcBc|dcAc cdGA|cded cAAc|Addc defd|geag edcB|A2GA EAcd|e^fge dGBc|eaag eddc|edef gfgf|eccg edcd|ecge addc|eaag egdc|eceg addf| (3gfg dB efed|cAAB cded|
